linkedin.svg

<svg xmlns:rdf="http://www.w3.org/1999/02/22-rdf-syntax-ns#" xmlns="http://www.w3.org/2000/svg" height="100%" width="100%" version="1.1" xmlns:cc="http://creativecommons.org/ns#" xmlns:dc="http://purl.org/dc/elements/1.1/" viewBox="0 0 64 64">
<path d="m12.8 51.2v-26.816h8.192v26.816h-8.192m8.448-34.24c0.064 2.304-1.664 4.16-4.416 4.16-2.56 0-4.224-1.856-4.224-4.16 0-2.368 1.728-4.16 4.352-4.16s4.288 1.792 4.288 4.16m21.504 34.24v-14.848c0-3.456-1.152-5.824-4.16-5.824-2.24 0-3.584 1.6-4.224 3.136-0.192 0.576-0.256 1.344-0.256 2.112v15.424h-8.192v-18.24c0-3.328-0.128-6.144-0.192-8.576h7.104l0.384 3.776h0.128c1.088-1.792 3.776-4.352 8.192-4.352 5.376 0 9.472 3.648 9.472 11.584v15.808h-8.256m21.248-45.568c0-3.072-2.56-5.632-5.632-5.632h-52.736c-3.072 0-5.632 2.56-5.632 5.632v52.736c0 3.072 2.56 5.632 5.632 5.632h52.736c3.072 0 5.632-2.56 5.632-5.632v-52.736" fill="#1d87bd"/>
</svg>

<svg xmlns="http://www.w3.org/2000/svg" viewBox="0 0 64 64"><path d="M12.8 51.2V24.384h8.192V51.2H12.8m8.448-34.24c.064 2.304-1.664 4.16-4.416 4.16-2.56 0-4.224-1.856-4.224-4.16 0-2.368 1.728-4.16 4.352-4.16s4.288 1.792 4.288 4.16M42.752 51.2V36.352c0-3.456-1.152-5.824-4.16-5.824-2.24 0-3.584 1.6-4.224 3.136-.192.576-.256 1.344-.256 2.112V51.2H25.92V32.96c0-3.328-.128-6.144-.192-8.576h7.104l.384 3.776h.128c1.088-1.792 3.776-4.352 8.192-4.352 5.376 0 9.472 3.648 9.472 11.584V51.2h-8.256M64 5.632C64 2.56 61.44 0 58.368 0H5.632C2.56 0 0 2.56 0 5.632v52.736C0 61.44 2.56 64 5.632 64h52.736C61.44 64 64 61.44 64 58.368V5.632" fill="#1d87bd"/></svg>
